X:1
T:Andrew Marteen
M:3/4
L:1/4
K:G
 D| G- G A| B B A| G F E| D- D D| G F G| A- B c| d3-| d2 B| d B d|\
 D- D E| =F E D| G F G| A B c| d3-| d c F| G3-| G2 B| d B d| D2 E|\
 =F E D| G F G| A B c| d3-| d c F| G3-| G z|
